Default.style/camping.svg

<svg width="32" height="32" xmlns="http://www.w3.org/2000/svg"><path d="M2.766 30H.008v1.994h31.983V30h-2.722l-.918-1.653-11.16-19.906 3.933-6.966-1.735-.98-3.425 5.91-3.336-5.91-1.737.98 3.934 6.967L3.684 28.359 2.766 30Zm6.906 0h12.672l-6.336-12.672L9.672 30Z" fill="#888" fill-rule="evenodd"/></svg>

<?xml version="1.0" encoding="UTF-8" standalone="no"?>
<svg width="32px" height="32px" viewBox="0 0 32 32" version="1.1" xmlns="http://www.w3.org/2000/svg" xmlns:xlink="http://www.w3.org/1999/xlink" xmlns:sketch="http://www.bohemiancoding.com/sketch/ns">
    <!-- Generator: Sketch 3.2.2 (9983) - http://www.bohemiancoding.com/sketch -->
    <title>camp</title>
    <desc>Created with Sketch.</desc>
    <defs></defs>
    <g id="p" stroke="none" stroke-width="1" fill="none" fill-rule="evenodd" sketch:type="MSPage">
        <g id="camp" sketch:type="MSLayerGroup" fill="#888888">
            <path d="M2.76594645,30 L0.008,30 L0.008,31.994 L31.991,31.994 L31.991,30 L29.2693333,30 L28.351,28.347 L17.191,8.441 L21.124,1.475 L19.389,0.495 L15.964,6.405 L12.628,0.495 L10.891,1.475 L14.825,8.442 L3.684,28.359 L2.76594645,30 Z M9.672,30 L22.344,30 L16.008,17.328 L9.672,30 Z" id="Shape" sketch:type="MSShapeGroup"></path>
        </g>
    </g>
</svg>
